public/logos/ford.svg

<svg fill="none" height="48" viewBox="0 0 139 48" width="139" xmlns="http://www.w3.org/2000/svg"><g fill="#fff"><path d="m69.3603 47.9635c-38.3071 0-69.3603-10.7363-69.3603-23.9812 0-13.2466 31.0538-23.9823 69.3603-23.9823 38.3037 0 69.3547 10.7352 69.3547 23.9823 0 13.2443-31.052 23.9812-69.3547 23.9812zm0-45.88571c-36.9611 0-66.92202 9.80521-66.92202 21.90451 0 12.0998 29.95982 21.9061 66.92202 21.9061 36.9607 0 66.9167-9.8069 66.9167-21.9061 0-12.0993-29.958-21.90451-66.9167-21.90451z"/><path d="m51.2677 5.97237c-.9843.00311-1.9737.04154-2.9697.12332-6.6155.55316-12.9123 4.25341-12.9237 9.87141-.0071 2.8488 2.0316 5.1572 5.1904 5.0556 3.7119-.125 6.7591-3.0793 8.3543-6.804.6052-1.4132-.5157-2.0003-1.0491-1.1866-.929 1.4214-2.223 2.5649-3.7457 3.31-1.7465.8497-3.6133.6205-4.1794-.7884-.7957-1.9877.8584-4.962 4.6328-6.36159 5.4518-2.00517 11.1561-.67875 16.6449.34568.0784 0 .3708.16109.1123.29488-.983.53243-1.9507.96533-3.4583 2.25413-1.0809.9195-2.4959 2.1438-3.5904 3.4773-1.0864 1.3144-1.8564 2.4868-2.8753 3.7864-.142.1879-.3168.1792-.3147.1792-2.4834.4166-4.9146.6958-7.1406 2.2335-.4605.3156-.6603.8759-.3811 1.3045.2509.3801.8247.4204 1.2231.1327 1.383-1.0277 2.8068-1.5115 4.4396-1.5563.0713.0044.1055.0159.1257.0596.0125.0245.0049.0763-.0245.1145-2.4459 3.3709-3.0584 4.1327-4.8985 6.2225-.941 1.0741-1.8667 1.9807-2.9008 2.9243-4.1778 3.8558-8.6713 3.7891-10.2834 1.3717-.9633-1.4509-.8363-2.974-.205-4.2376.7772-1.5476 2.3478-2.6818 3.654-3.3442.4849-.2457.6244-.8617.1389-1.423-.3086-.3659-1.057-.4309-1.6143-.3293-1.7112.3139-3.7332 1.599-4.9278 3.1455-1.3465 1.7354-2.0191 3.8422-1.7933 6.2067.4055 4.2664 3.9416 6.7308 7.956 6.7024 3.1944-.0248 6.2033-.9863 9.8238-4.6374 3.375-3.4053 6.4497-8.4919 9.3288-13.2088.0903-.1508.1544-.2316.592-.2856 1.8059-.2244 4.4724-.4799 6.1813-.5782.3799-.0208.4571-.0166.6095.1718.4452.5581 1.114 1.0318 1.6495 1.3201.2613.1409.3855.2112.5907.2145.253.0054.45-.1298.5774-.2729.1812-.1977.2313-.4562.1333-.6228-.1023-.1747-1.2941-.8309-1.3295-1.0963-.0261-.1654.1561-.2054.1561-.2054.8763-.273 1.7879-.835 2.3403-1.8861.5426-1.0348.6302-2.4159-.3625-3.1837-.8714-.6744-2.1879-.5679-3.2384.3686-1.0275.9092-1.3675 2.232-1.2287 3.3913.025.2009.0146.2685-.2613.2915-1.5795.1256-3.1013.1692-4.7939.2582-.1132.0082-.1491-.0661-.0833-.1442 1.949-3.3638 4.8591-5.7592 8.0778-8.1182.2134-.1589.1482-.4611.1395-.7134 5.8116 1.2543 11.4279 3.5889 17.4572 3.5392 2.4932-.0202 4.8802-.397 7.1617-1.6404 2.0067-1.0872 2.821-2.09297 2.8809-3.13814.0468-.72245-.459-1.17912-1.179-1.02349-6.0919 1.39029-11.9034 1.37494-17.9643.64649-6.9224-.83474-13.565-2.55315-20.4553-2.53149zm12.1601 9.74863c.1424.0076.2756.055.3834.1468.3211.2725.1691.9523-.1553 1.423-.3543.5193-.9552.9676-1.5033 1.0769-.1099.0202-.2051-.0268-.2503-.2687-.0892-.6405.1204-1.4983.8095-2.1028.2156-.1894.4787-.2878.716-.2752zm48.9032.1228c-1.107 0-2.56.002-3.714.002-.275 0-.417.0333-.547.2872-.426.8109-5.617 8.5396-6.584 10.0407-.162.2283-.361.1965-.384-.064-.098-.8912-.872-1.9156-2.0932-2.4059-.9307-.3752-1.8407-.4428-2.7861-.3183-1.7073.2277-3.2283 1.1233-4.5661 2.1319-2.0154 1.523-3.754 3.4946-5.9991 4.9526-1.2256.7935-2.9035 1.4856-4.0263.4535-1.0162-.936-.9019-3.0154.653-4.6231.1638-.1687.3604-.0279.3294.1234-.147.7273.0338 1.4505.5895 1.9578.6781.6034 1.6489.6722 2.4795.2692.9807-.4822 1.5567-1.4145 1.7254-2.4728.2596-1.641-1.0123-3.0885-2.6027-3.2042-1.2926-.0901-2.5317.3565-3.7389 1.3471-.6058.4986-.9504.8677-1.4735 1.6071-.1279.1824-.3237.2009-.3172-.0683.0604-2.1008-.8149-3.2829-2.5636-3.3216-1.3563-.0317-2.8065.6988-3.9364 1.5943-1.2387.9884-2.3218 2.2979-3.4827 3.5287-.1442.1519-.2705.1448-.3108-.1495-.0354-1.3919-.3876-2.7402-1.0364-3.6975-.2291-.3331-.7119-.4981-1.1179-.2731-.1873.1021-.8397.3998-1.3138.7794-.2356.1927-.3267.4716-.2233.8293.6259 2.0789.4882 4.4434-.3608 6.4409-.7799 1.8282-2.2957 3.4786-4.0765 4.0367-1.1734.3696-2.3937.1888-3.1486-.8449-1.0368-1.4263-.6176-3.9065.927-5.9668 1.3645-1.813 3.3364-2.9653 5.305-3.7074.2318-.0884.279-.2357.2137-.4312-.1072-.3221-.2774-.7593-.3476-.9597-.1801-.4767-.6858-.5548-1.3025-.4876-1.4297.1655-2.719.652-3.9932 1.3297-3.3363 1.7747-5.0083 5.2095-5.7419 7.0476-.3527.8819-.6547 1.4334-1.0449 1.9216-.5257.657-1.186 1.2544-2.3931 2.3077-.1089.0967-.1905.2981-.0991.4848.1236.254.751 1.1342.9285 1.2129.1964.0961.4243-.0381.5158-.1036.8447-.5684 1.8554-1.4701 2.3501-2.0817.1731-.2091.3518-.1211.4438.1967.4615 1.636 1.6701 2.9715 3.3415 3.5302 3.0588 1.0249 6.2318-.4585 8.6265-3.0409 1.5218-1.6409 2.071-2.6966 2.6545-3.4141.9883-1.2172 2.939-3.9398 5.2613-5.6878.8518-.6443 1.8603-1.1358 2.3676-.8098.4065.2621.5378.8708-.1153 2.0503-2.3676 4.2959-5.8532 9.3433-6.4921 10.5682-.1165.2124-.0148.3789.2089.3789 1.2393-.0054 2.4683-.0028 3.5933-.0028.1867-.0088.2712-.0933.3648-.2249 1.8173-2.8259 3.5278-5.5168 5.3609-8.298.1034-.1638.1976-.0368.2014.0347.0381.6449.1974 1.528.5827 2.108.6934 1.0714 1.6754 1.5316 2.765 1.5387.8664.0099 1.3045-.1211 2.239-.4678.6538-.2438 1.2724-.5737 1.8397-.9809.2737-.1884.3215.1275.3144.1761-.4202 2.2438.0991 4.9018 2.3437 6.0043 2.6864 1.316 5.6374-.5334 7.3355-2.2027.166-.1611.3451-.1442.362.202.0359.6378.3255 1.3943.8567 1.924 1.4227 1.4186 4.2945.8566 7.1765-1.3599 1.85-1.4181 3.786-3.4227 5.535-5.5452.064-.0819.113-.2147-.013-.348-.266-.2768-.651-.5937-.915-.8378-.121-.1015-.298-.0724-.399.0046-1.793 1.6933-3.406 3.6248-5.738 5.2221-.787.545-2.04.9851-2.603.2283-.219-.2938-.194-.7008.022-1.2343.681-1.6852 11.445-17.9679 12.004-18.9268l.001-.0011c.096-.1671-.005-.2892-.218-.2892zm-15.0834 10.1796c.2818-.0025.5457.0514.7861.1662 1.3258.6285.9023 2.1537.3096 3.3512-.0201.0375-.0326.0786-.0367.121s.0003.0852.0128.1259c.0218.1245.1848.2452.3454.3025.0561.0208.0879.0611.0242.1922-.4583.9747-.8785 1.5366-1.4526 2.383-.5269.7826-1.1214 1.3926-1.8419 1.9801-1.0858.8929-2.5933 1.8643-3.8397 1.2112-.554-.2862-.793-1.0557-.7821-1.6787.0288-1.7529.811-3.5516 2.2598-5.3198 1.4354-1.7552 2.9937-2.8241 4.2151-2.8348z"/></g></svg>

<svg width="139" height="48" viewBox="0 0 139 48" fill="none" xmlns="http://www.w3.org/2000/svg">
<path d="M69.3603 47.9635C31.0532 47.9635 0 37.2272 0 23.9823C0 10.7357 31.0538 0 69.3603 0C107.664 0 138.715 10.7352 138.715 23.9823C138.715 37.2266 107.663 47.9635 69.3603 47.9635ZM69.3603 2.07779C32.3992 2.07779 2.43828 11.883 2.43828 23.9823C2.43828 36.0821 32.3981 45.8884 69.3603 45.8884C106.321 45.8884 136.277 36.0815 136.277 23.9823C136.277 11.883 106.319 2.07779 69.3603 2.07779Z" fill="white"/>
<path d="M51.2677 5.97237C50.2834 5.97548 49.294 6.01391 48.298 6.09569C41.6825 6.64885 35.3857 10.3491 35.3743 15.9671C35.3672 18.8159 37.4059 21.1243 40.5647 21.0227C44.2766 20.8977 47.3238 17.9434 48.919 14.2187C49.5242 12.8055 48.4033 12.2184 47.8699 13.0321C46.9409 14.4535 45.6469 15.597 44.1242 16.3421C42.3777 17.1918 40.5109 16.9626 39.9448 15.5537C39.1491 13.566 40.8032 10.5917 44.5776 9.19211C50.0294 7.18694 55.7337 8.51336 61.2225 9.53779C61.3009 9.53779 61.5933 9.69888 61.3348 9.83267C60.3518 10.3651 59.3841 10.798 57.8765 12.0868C56.7956 13.0063 55.3806 14.2306 54.2861 15.5641C53.1997 16.8785 52.4297 18.0509 51.4108 19.3505C51.2688 19.5384 51.094 19.5297 51.0961 19.5297C48.6127 19.9463 46.1815 20.2255 43.9555 21.7632C43.495 22.0788 43.2952 22.6391 43.5744 23.0677C43.8253 23.4478 44.3991 23.4881 44.7975 23.2004C46.1805 22.1727 47.6043 21.6889 49.2371 21.6441C49.3084 21.6485 49.3426 21.66 49.3628 21.7037C49.3753 21.7282 49.3677 21.78 49.3383 21.8182C46.8924 25.1891 46.2799 25.9509 44.4398 28.0407C43.4988 29.1148 42.5731 30.0214 41.539 30.965C37.3612 34.8208 32.8677 34.7541 31.2556 32.3367C30.2923 30.8858 30.4193 29.3627 31.0506 28.0991C31.8278 26.5515 33.3984 25.4173 34.7046 24.7549C35.1895 24.5092 35.329 23.8932 34.8435 23.3319C34.5349 22.966 33.7865 22.901 33.2292 23.0026C31.518 23.3165 29.496 24.6016 28.3014 26.1481C26.9549 27.8835 26.2823 29.9903 26.5081 32.3548C26.9136 36.6212 30.4497 39.0856 34.4641 39.0572C37.6585 39.0324 40.6674 38.0709 44.2879 34.4198C47.6629 31.0145 50.7376 25.9279 53.6167 21.211C53.707 21.0602 53.7711 20.9794 54.2087 20.9254C56.0146 20.701 58.6811 20.4455 60.39 20.3472C60.7699 20.3264 60.8471 20.3306 60.9995 20.519C61.4447 21.0771 62.1135 21.5508 62.649 21.8391C62.9103 21.98 63.0345 22.0503 63.2397 22.0536C63.4927 22.059 63.6897 21.9238 63.8171 21.7807C63.9983 21.583 64.0484 21.3245 63.9504 21.1579C63.8481 20.9832 62.6563 20.327 62.6209 20.0616C62.5948 19.8962 62.777 19.8562 62.777 19.8562C63.6533 19.5832 64.5649 19.0212 65.1173 17.9701C65.6599 16.9353 65.7475 15.5542 64.7548 14.7864C63.8834 14.112 62.5669 14.2185 61.5164 15.155C60.4889 16.0642 60.1489 17.387 60.2877 18.5463C60.3127 18.7472 60.3023 18.8148 60.0264 18.8378C58.4469 18.9634 56.9251 19.007 55.2325 19.096C55.1193 19.1042 55.0834 19.0299 55.1492 18.9518C57.0982 15.588 60.0083 13.1926 63.227 10.8336C63.4404 10.6747 63.3752 10.3725 63.3665 10.1202C69.1781 11.3745 74.7944 13.7091 80.8237 13.6594C83.3169 13.6392 85.7039 13.2624 87.9854 12.019C89.9921 10.9318 90.8064 9.92603 90.8663 8.88086C90.9131 8.15841 90.4073 7.70174 89.6873 7.85737C83.5954 9.24766 77.7839 9.23231 71.723 8.50386C64.8006 7.66912 58.158 5.95071 51.2677 5.97237ZM63.4278 15.721C63.5702 15.7286 63.7034 15.776 63.8112 15.8678C64.1323 16.1403 63.9803 16.8201 63.6559 17.2908C63.3016 17.8101 62.7007 18.2584 62.1526 18.3677C62.0427 18.3879 61.9475 18.3409 61.9023 18.099C61.8131 17.4585 62.0227 16.6007 62.7118 15.9962C62.9274 15.8068 63.1905 15.7084 63.4278 15.721ZM112.331 15.8438C111.224 15.8438 109.771 15.8458 108.617 15.8458C108.342 15.8458 108.2 15.8791 108.07 16.133C107.644 16.9439 102.453 24.6726 101.486 26.1737C101.324 26.402 101.125 26.3702 101.102 26.1097C101.004 25.2185 100.23 24.1941 99.0088 23.7038C98.0781 23.3286 97.1681 23.261 96.2227 23.3855C94.5154 23.6132 92.9944 24.5088 91.6566 25.5174C89.6412 27.0404 87.9026 29.012 85.6575 30.47C84.4319 31.2635 82.754 31.9556 81.6312 30.9235C80.615 29.9875 80.7293 27.9081 82.2842 26.3004C82.448 26.1317 82.6446 26.2725 82.6136 26.4238C82.4666 27.1511 82.6474 27.8743 83.2031 28.3816C83.8812 28.985 84.852 29.0538 85.6826 28.6508C86.6633 28.1686 87.2393 27.2363 87.408 26.178C87.6676 24.537 86.3957 23.0895 84.8053 22.9738C83.5127 22.8837 82.2736 23.3303 81.0664 24.3209C80.4606 24.8195 80.116 25.1886 79.5929 25.928C79.465 26.1104 79.2692 26.1289 79.2757 25.8597C79.3361 23.7589 78.4608 22.5768 76.7121 22.5381C75.3558 22.5064 73.9056 23.2369 72.7757 24.1324C71.537 25.1208 70.4539 26.4303 69.293 27.6611C69.1488 27.813 69.0225 27.8059 68.9822 27.5116C68.9468 26.1197 68.5946 24.7714 67.9458 23.8141C67.7167 23.481 67.2339 23.316 66.8279 23.541C66.6406 23.6431 65.9882 23.9408 65.5141 24.3204C65.2785 24.5131 65.1874 24.792 65.2908 25.1497C65.9167 27.2286 65.779 29.5931 64.93 31.5906C64.1501 33.4188 62.6343 35.0692 60.8535 35.6273C59.6801 35.9969 58.4598 35.8161 57.7049 34.7824C56.6681 33.3561 57.0873 30.8759 58.6319 28.8156C59.9964 27.0026 61.9683 25.8503 63.9369 25.1082C64.1687 25.0198 64.2159 24.8725 64.1506 24.677C64.0434 24.3549 63.8732 23.9177 63.803 23.7173C63.6229 23.2406 63.1172 23.1625 62.5005 23.2297C61.0708 23.3952 59.7815 23.8817 58.5073 24.5594C55.171 26.3341 53.499 29.7689 52.7654 31.607C52.4127 32.4889 52.1107 33.0404 51.7205 33.5286C51.1948 34.1856 50.5345 34.783 49.3274 35.8363C49.2185 35.933 49.1369 36.1344 49.2283 36.3211C49.3519 36.5751 49.9793 37.4553 50.1568 37.534C50.3532 37.6301 50.5811 37.4959 50.6726 37.4304C51.5173 36.862 52.528 35.9603 53.0227 35.3487C53.1958 35.1396 53.3745 35.2276 53.4665 35.5454C53.928 37.1814 55.1366 38.5169 56.808 39.0756C59.8668 40.1005 63.0398 38.6171 65.4345 36.0347C66.9563 34.3938 67.5055 33.3381 68.089 32.6206C69.0773 31.4034 71.028 28.6808 73.3503 26.9328C74.2021 26.2885 75.2106 25.797 75.7179 26.123C76.1244 26.3851 76.2557 26.9938 75.6026 28.1733C73.235 32.4692 69.7494 37.5166 69.1105 38.7415C68.994 38.9539 69.0957 39.1204 69.3194 39.1204C70.5587 39.115 71.7877 39.1176 72.9127 39.1176C73.0994 39.1088 73.1839 39.0243 73.2775 38.8927C75.0948 36.0668 76.8053 33.3759 78.6384 30.5947C78.7418 30.4309 78.836 30.5579 78.8398 30.6294C78.8779 31.2743 79.0372 32.1574 79.4225 32.7374C80.1159 33.8088 81.0979 34.269 82.1875 34.2761C83.0539 34.286 83.492 34.155 84.4265 33.8083C85.0803 33.5645 85.6989 33.2346 86.2662 32.8274C86.5399 32.639 86.5877 32.9549 86.5806 33.0035C86.1604 35.2473 86.6797 37.9053 88.9243 39.0078C91.6107 40.3238 94.5617 38.4744 96.2598 36.8051C96.4258 36.644 96.6049 36.6609 96.6218 37.0071C96.6577 37.6449 96.9473 38.4014 97.4785 38.9311C98.9012 40.3497 101.773 39.7877 104.655 37.5712C106.505 36.1531 108.441 34.1485 110.19 32.026C110.254 31.9441 110.303 31.8113 110.177 31.678C109.911 31.4012 109.526 31.0843 109.262 30.8402C109.141 30.7387 108.964 30.7678 108.863 30.8448C107.07 32.5381 105.457 34.4696 103.125 36.0669C102.338 36.6119 101.085 37.052 100.522 36.2952C100.303 36.0014 100.328 35.5944 100.544 35.0609C101.225 33.3757 111.989 17.093 112.548 16.1341L112.549 16.133C112.645 15.9659 112.544 15.8438 112.331 15.8438ZM97.2476 26.0234C97.5294 26.0209 97.7933 26.0748 98.0337 26.1896C99.3595 26.8181 98.936 28.3433 98.3433 29.5408C98.3232 29.5783 98.3107 29.6194 98.3066 29.6618C98.3025 29.7042 98.3069 29.747 98.3194 29.7877C98.3412 29.9122 98.5042 30.0329 98.6648 30.0902C98.7209 30.111 98.7527 30.1513 98.689 30.2824C98.2307 31.2571 97.8105 31.819 97.2364 32.6654C96.7095 33.448 96.115 34.058 95.3945 34.6455C94.3087 35.5384 92.8012 36.5098 91.5548 35.8567C91.0008 35.5705 90.7618 34.801 90.7727 34.178C90.8015 32.4251 91.5837 30.6264 93.0325 28.8582C94.4679 27.103 96.0262 26.0341 97.2476 26.0234Z" fill="white"/>
</svg>
